public/assets/icons/pause.svg

<svg xmlns="http://www.w3.org/2000/svg" viewBox="-4 -3 24 24" width="24" height="24" preserveAspectRatio="xMinYMin" class="jam jam-pause"><path d='M2 0h2a2 2 0 0 1 2 2v14a2 2 0 0 1-2 2H2a2 2 0 0 1-2-2V2a2 2 0 0 1 2-2zm0 2v14h2V2H2zm10-2h2a2 2 0 0 1 2 2v14a2 2 0 0 1-2 2h-2a2 2 0 0 1-2-2V2a2 2 0 0 1 2-2zm0 2v14h2V2h-2z' /></svg>

<svg xmlns="http://www.w3.org/2000/svg" width="16" height="18" viewBox="0 0 16 18">
  <path id="pause" d="M2,0H4A2,2,0,0,1,6,2V16a2,2,0,0,1-2,2H2a2,2,0,0,1-2-2V2A2,2,0,0,1,2,0ZM2,2V16H4V2ZM12,0h2a2,2,0,0,1,2,2V16a2,2,0,0,1-2,2H12a2,2,0,0,1-2-2V2A2,2,0,0,1,12,0Zm0,2V16h2V2Z" fill="#f2f2f2"/>
</svg>
